web/public/images/startup-logos/nous_logo.svg

<svg viewBox="0 0 175 32" className="w-full fill-current text-white opacity-50" xmlns="http://www.w3.org/2000/svg">
  <path d="M42.9209 0.943769H51.4958V5.28719C53.5236 2.04402 56.8851 0.0162354 61.6955 0.0162354C69.2277 0.0162354 72.8899 4.81383 72.8899 14.038V31.0727H64.187V14.5018C64.187 10.0976 61.9834 7.43332 58.2764 7.43332C54.1025 7.43332 51.4958 10.6765 51.4958 15.6596V31.0727H42.9209V0.943769Z" />
  <path d="M76.4114 15.9504C76.4114 6.62069 83.0161 0.0159912 92.4609 0.0159912C101.906 0.0159912 108.568 6.62069 108.568 15.9504C108.568 25.3377 101.906 32 92.4609 32C83.0161 32 76.4114 25.3377 76.4114 15.9504ZM99.9356 15.9504C99.9356 10.9673 96.8651 7.43308 92.4609 7.43308C88.1143 7.43308 85.0439 10.9673 85.0439 15.9504C85.0439 20.9911 88.1143 24.5861 92.4609 24.5861C96.8651 24.5829 99.9324 20.9911 99.9324 15.9504H99.9356Z"/>
  <path d="M142.058 31.0724H133.483V26.7258C131.456 29.9722 128.094 31.9999 123.281 31.9999C115.748 31.9999 112.086 27.2023 112.086 17.9782V0.943481H120.779V17.5144C120.779 21.9186 122.98 24.5828 126.69 24.5828C130.848 24.5828 133.467 21.3397 133.467 16.3566V0.943481H142.042L142.058 31.0724Z" />
  <path d="M146.232 21.4453H154.75C154.865 24.343 157.472 26.0222 161.063 26.0222C164.367 26.0222 166.28 24.4006 166.28 22.6031C166.28 16.4622 146.984 22.6606 146.984 9.91503C146.984 3.83808 152.316 0 161.182 0C169.235 0 174.334 4.05557 174.855 10.7178H166.395C166.222 7.76252 164.137 5.96821 160.66 5.96821C157.462 5.96821 155.617 7.41708 155.617 9.56001C155.617 15.4131 174.855 9.21139 174.855 22.3088C174.855 28.277 169.581 31.984 160.833 31.984C151.91 32 146.405 28.0595 146.232 21.4453Z" />
  <path d="M0 31H30.6858V15.6571C30.6858 7.18349 23.8165 0.31424 15.3429 0.31424V0.31424C6.86925 0.31424 0 7.18348 0 15.6571V31Z"/>
</svg>

<svg viewBox="0 0 175 32" xmlns="http://www.w3.org/2000/svg"><path d="M43 1h8.5v4.3C53.5 2 56.9 0 61.7 0c7.5 0 11.2 4.8 11.2 14v17h-8.7V14.6c0-4.4-2.2-7-6-7-4.1 0-6.7 3.2-6.7 8.2V31h-8.6zM76.4 16c0-9.4 6.6-16 16-16 9.5 0 16.2 6.6 16.2 16 0 9.3-6.7 16-16.1 16-9.5 0-16-6.7-16-16zm23.5 0c0-5-3-8.6-7.4-8.6S85 11 85 16s3.1 8.6 7.5 8.6 7.4-3.6 7.4-8.6zM142 31h-8.5v-4.3c-2 3.3-5.4 5.3-10.2 5.3-7.6 0-11.2-4.8-11.2-14V1h8.7v16.5c0 4.4 2.2 7 5.9 7 4.1 0 6.8-3.2 6.8-8.1V.9h8.5zM146.2 21.4h8.6c0 3 2.7 4.6 6.3 4.6 3.3 0 5.2-1.6 5.2-3.4 0-6.1-19.3 0-19.3-12.7 0-6 5.3-9.9 14.2-9.9 8 0 13.1 4 13.7 10.7h-8.5c-.2-3-2.3-4.7-5.7-4.7-3.2 0-5 1.4-5 3.6 0 5.8 19.2-.4 19.2 12.7 0 6-5.3 9.7-14 9.7-9 0-14.5-4-14.7-10.6zM0 31h30.7V15.7a15.3 15.3 0 0 0-30.7 0z"/></svg>
